icons/shield-keyhole-fill.svg

<svg viewBox="0 0 24 24" fill="currentColor" xmlns="http://www.w3.org/2000/svg"><path d="M12 1L20.2169 2.82598C20.6745 2.92766 21 3.33347 21 3.80217V13.7889C21 15.795 19.9974 17.6684 18.3282 18.7812L12 23L5.6718 18.7812C4.00261 17.6684 3 15.795 3 13.7889V3.80217C3 3.33347 3.32553 2.92766 3.78307 2.82598L12 1ZM12 7C10.8954 7 10 7.89543 10 9C10 9.74025 10.4022 10.3866 10.9999 10.7324L11 15H13L13.0011 10.7318C13.5983 10.3858 14 9.73984 14 9C14 7.89543 13.1046 7 12 7Z"/></svg>

<svg xmlns="http://www.w3.org/2000/svg" viewBox="0 0 24 24">
    <g>
        <path fill="none" d="M0 0h24v24H0z"/>
        <path d="M12 1l8.217 1.826a1 1 0 0 1 .783.976v9.987a6 6 0 0 1-2.672 4.992L12 23l-6.328-4.219A6 6 0 0 1 3 13.79V3.802a1 1 0 0 1 .783-.976L12 1zm0 6a2 2 0 0 0-1 3.732V15h2l.001-4.268A2 2 0 0 0 12 7z"/>
    </g>
</svg>
